www/static/img/overview/popover.svg

<svg fill="none" height="72" viewBox="0 0 126 72" width="126" xmlns="http://www.w3.org/2000/svg" xmlns:xlink="http://www.w3.org/1999/xlink"><mask id="a" fill="#fff"><path clip-rule="evenodd" d="m4.56247 0c-2.20914 0-4.000001 1.79086-4.000001 4v54.4375c0 2.2092 1.790861 4 4.000001 4h10.24993l8.8751 8.875 8.875-8.875h88.8755c2.209 0 4-1.7908 4-4v-54.4375c0-2.20914-1.791-4-4-4z" fill="#fff" fill-rule="evenodd"/></mask><path clip-rule="evenodd" d="m4.56247 0c-2.20914 0-4.000001 1.79086-4.000001 4v54.4375c0 2.2092 1.790861 4 4.000001 4h10.24993l8.8751 8.875 8.875-8.875h88.8755c2.209 0 4-1.7908 4-4v-54.4375c0-2.20914-1.791-4-4-4z" fill="#fff" fill-rule="evenodd"/><path d="m4.56247 62.4375v-2zm10.24993 0 1.4143-1.4142-.5858-.5858h-.8285zm8.8751 8.875-1.4143 1.4143 1.4143 1.4142 1.4142-1.4142zm8.875-8.875v-2h-.8285l-.5857.5858zm88.8755 0v-2zm-118.87553-58.4375c0-1.10457.89543-2 2-2v-4c-3.31371 0-6 2.686297-6 6zm0 54.4375v-54.4375h-4v54.4375zm2 2c-1.10457 0-2-.8954-2-2h-4c0 3.3137 2.68629 6 6 6zm10.24993 0h-10.24993v4h10.24993zm10.2893 9.4608-8.875-8.875-2.8285 2.8284 8.875 8.8751zm6.0466-8.875-8.8751 8.875 2.8285 2.8285 8.875-8.8751zm90.2897-.5858h-88.8755v4h88.8755zm2-2c0 1.1046-.896 2-2 2v4c3.313 0 6-2.6863 6-6zm0-54.4375v54.4375h4v-54.4375zm-2-2c1.104 0 2 .89543 2 2h4c0-3.313709-2.687-6-6-6zm-116.87553 0h116.87553v-4h-116.87553z" fill="#005a7a" mask="url(#a)"/><rect fill="#e9eced" height="6" rx="3" width="31" x="13" y="12"/><rect fill="#e9eced" height="6" rx="3" width="99" x="13" y="23"/><rect fill="#005a7a" height="13" rx="3" width="25" x="13" y="37"/></svg>

<svg width="126" height="72" viewBox="0 0 126 72" fill="none" xmlns="http://www.w3.org/2000/svg">
<mask id="path-1-inside-1" fill="white">
<path fill-rule="evenodd" clip-rule="evenodd" d="M4.56247 0C2.35333 0 0.562469 1.79086 0.562469 4V58.4375C0.562469 60.6467 2.35333 62.4375 4.56247 62.4375L14.8124 62.4375L23.6875 71.3125L32.5625 62.4375L121.438 62.4375C123.647 62.4375 125.438 60.6467 125.438 58.4375V4C125.438 1.79086 123.647 0 121.438 0H4.56247Z"/>
</mask>
<path fill-rule="evenodd" clip-rule="evenodd" d="M4.56247 0C2.35333 0 0.562469 1.79086 0.562469 4V58.4375C0.562469 60.6467 2.35333 62.4375 4.56247 62.4375L14.8124 62.4375L23.6875 71.3125L32.5625 62.4375L121.438 62.4375C123.647 62.4375 125.438 60.6467 125.438 58.4375V4C125.438 1.79086 123.647 0 121.438 0H4.56247Z" fill="white"/>
<path d="M4.56247 62.4375L4.56247 60.4375H4.56247V62.4375ZM14.8124 62.4375L16.2267 61.0233L15.6409 60.4375L14.8124 60.4375L14.8124 62.4375ZM23.6875 71.3125L22.2732 72.7268L23.6875 74.141L25.1017 72.7268L23.6875 71.3125ZM32.5625 62.4375L32.5625 60.4375L31.734 60.4375L31.1483 61.0233L32.5625 62.4375ZM121.438 62.4375L121.438 60.4375H121.438L121.438 62.4375ZM2.56247 4C2.56247 2.89543 3.4579 2 4.56247 2V-2C1.24876 -2 -1.43753 0.686297 -1.43753 4H2.56247ZM2.56247 58.4375V4H-1.43753V58.4375H2.56247ZM4.56247 60.4375C3.4579 60.4375 2.56247 59.5421 2.56247 58.4375H-1.43753C-1.43753 61.7512 1.24876 64.4375 4.56247 64.4375V60.4375ZM14.8124 60.4375L4.56247 60.4375L4.56247 64.4375L14.8124 64.4375L14.8124 60.4375ZM25.1017 69.8983L16.2267 61.0233L13.3982 63.8517L22.2732 72.7268L25.1017 69.8983ZM31.1483 61.0233L22.2732 69.8983L25.1017 72.7268L33.9767 63.8517L31.1483 61.0233ZM121.438 60.4375L32.5625 60.4375L32.5625 64.4375L121.438 64.4375L121.438 60.4375ZM123.438 58.4375C123.438 59.5421 122.542 60.4375 121.438 60.4375V64.4375C124.751 64.4375 127.438 61.7512 127.438 58.4375H123.438ZM123.438 4V58.4375H127.438V4H123.438ZM121.438 2C122.542 2 123.438 2.89543 123.438 4H127.438C127.438 0.686291 124.751 -2 121.438 -2V2ZM4.56247 2H121.438V-2H4.56247V2Z" fill="#005A7A" mask="url(#path-1-inside-1)"/>
<rect x="13" y="12" width="31" height="6" rx="3" fill="#E9ECED"/>
<rect x="13" y="23" width="99" height="6" rx="3" fill="#E9ECED"/>
<rect x="13" y="37" width="25" height="13" rx="3" fill="#005A7A"/>
</svg>
